src/icons/thumbsup.svg

<?xml version="1.0" encoding="UTF-8"?>
<svg width="512px" height="512px" viewBox="0 0 512 512" version="1.1" xmlns="http://www.w3.org/2000/svg" xmlns:xlink="http://www.w3.org/1999/xlink">
    <!-- Generator: Sketch 62 (91390) - https://sketch.com -->
    <title>thumbsup</title>
    <desc>Created with Sketch.</desc>
    <g id="thumbsup" stroke="none" stroke-width="1" fill="none" fill-rule="evenodd">
        <path d="M414.9,252.404292 C427.1,248.404292 435.9,236.904292 435.9,223.404292 C435.9,206.604292 422.3,192.804292 405.3,192.804292 L314.5,192.804292 C316.3,170.704292 323.3,145.304292 315.5,115.504292 C308.9,90.3042924 280.7,71.5042924 269.1,82.9042924 C264.6,87.3042924 266,96.4042924 266,112.904292 C266,150.804292 250.3,189.204292 230.7,209.104292 C222.4,217.704292 208.4,220.604292 195.1,221.104292 L195.1,207.104292 L96,207.104292 L96,419.504292 L195.1,419.504292 L195.1,391.104292 C213.4,390.704292 241.6,395.704292 262.2,396.904292 C308.2,399.704292 352.5,394.804292 373.9,389.704292 C395.4,384.604292 404.9,378.204292 404.9,362.604292 C404.9,357.004292 403.2,351.804292 400.3,347.304292 C410.7,343.204292 418.1,333.004292 418.1,321.004292 C418.1,314.604292 416,308.804292 412.5,304.004292 C423,300.004292 430.6,289.704292 430.6,277.704292 C430.6,266.704292 424.1,257.004292 414.9,252.404292 Z M138.5,390.804292 C130.7,390.804292 124.4,384.504292 124.4,376.704292 C124.4,368.904292 130.8,362.604292 138.5,362.604292 C146.2,362.604292 152.6,368.904292 152.6,376.704292 C152.6,384.404292 146.2,390.804292 138.5,390.804292 Z" id="Shape" fill="#000000" fill-rule="nonzero"></path>
    </g>
</svg>

<svg xmlns="http://www.w3.org/2000/svg" width="512" height="512" viewBox="0 0 512 512">
    <path d="M414.9 252.404c12.2-4 21-15.5 21-29 0-16.8-13.6-30.6-30.6-30.6h-90.8c1.8-22.1 8.8-47.5 1-77.3-6.6-25.2-34.8-44-46.4-32.6-4.5 4.4-3.1 13.5-3.1 30 0 37.9-15.7 76.3-35.3 96.2-8.3 8.6-22.3 11.5-35.6 12v-14H96v212.4h99.1v-28.4c18.3-.4 46.5 4.6 67.1 5.8 46 2.8 90.3-2.1 111.7-7.2 21.5-5.1 31-11.5 31-27.1 0-5.6-1.7-10.8-4.6-15.3 10.4-4.1 17.8-14.3 17.8-26.3 0-6.4-2.1-12.2-5.6-17 10.5-4 18.1-14.3 18.1-26.3 0-11-6.5-20.7-15.7-25.3zm-276.4 138.4c-7.8 0-14.1-6.3-14.1-14.1s6.4-14.1 14.1-14.1c7.7 0 14.1 6.3 14.1 14.1 0 7.7-6.4 14.1-14.1 14.1z"/>
</svg>
